!!!!SEGMENT: Snf0109-Completi_sunt_dies_Mariae.krn
!!!id: Snf0109
!!!AGN: Motet
!!!SCT: Edwards, Gasch, Tröster (2021)
!!!voices: 4
!!!COM: Ludwig Senfl
!!!OTL: Completi sunt dies Mariae
**kern	**text	**kern	**text	**kern	**text	**kern	**text
*part4	*part4	*part3	*part3	*part2	*part2	*part1	*part1
*staff4	*staff4	*staff3	*staff3	*staff2	*staff2	*staff1	*staff1
*I"Bassus	*	*I"Tenor	*	*I"Altus	*	*I"Superius	*
*I'B	*	*I'T	*	*I'A	*	*I'S	*
*clefF4	*	*clefGv2	*	*clefGv2	*	*clefG2	*
*	*	*	*	*	*	*	*
*k[]	*	*k[]	*	*k[]	*	*k[]	*
*	*	*	*	*	*	*	*
*M2/1	*	*M2/1	*	*M2/1	*	*M2/1	*
*met(C|)	*	*met(C|)	*	*met(C|)	*	*met(C|)	*
!!section: Prima pars: Completi sunt dies Mariae
!!!OMD: Prima pars: Completi sunt dies Mariae
=1	=1	=1	=1	=1	=1	=1	=1
0r	.	0r	.	0e	Com-	0r	.
=2	=2	=2	=2	=2	=2	=2	=2
0r	.	0r	.	1B	-ple-	0r	.
.	.	.	.	1c	-ti	.	.
=3	=3	=3	=3	=3	=3	=3	=3
0r	.	0r	.	1d	.	1r	.
.	.	.	.	1d	sunt,	[1a	Com-
=4	=4	=4	=4	=4	=4	=4	=4
0r	.	1r	.	2r	.	1a]	.
.	.	.	.	1c	com-	.	.
.	.	[1A	Com-	.	.	1e	-ple-
.	.	.	.	4B	.	.	.
.	.	.	.	4A	.	.	.
=5	=5	=5	=5	=5	=5	=5	=5
0r	.	1A]	.	2.c	.	1f	-ti
.	.	.	.	4d	.	.	.
.	.	1E	-ple-	1B	.	1g	.
=6	=6	=6	=6	=6	=6	=6	=6
1r	.	1F	-ti	4A	-ple-	2c	sunt,
.	.	.	.	4B	.	.	.
.	.	.	.	4c	.	2cc	com-
.	.	.	.	4d	.	.	.
[1E	Com-	1G	.	2.e	.	2b	-ple-
.	.	.	.	.	.	2g	.
.	.	.	.	4f	.	.	.
=7	=7	=7	=7	=7	=7	=7	=7
1E]	.	0G	sunt	2g	.	2b	.
.	.	.	.	2e	-ti	2cc	-ti
1BB	-ple-	.	.	1d	sunt,	1dd	sunt,
=8	=8	=8	=8	=8	=8	=8	=8
1C	-ti	0r	.	2r	.	2g	com-
.	.	.	.	2e	com-	2cc	-ple-
1D	.	.	.	2d	-ple-	2b	.
.	.	.	.	[2f	.	[2a	.
=9	=9	=9	=9	=9	=9	=9	=9
0D	sunt	0r	.	4f]	.	4a]	.
.	.	.	.	4e	.	4g	.
.	.	.	.	4d	.	4f	.
.	.	.	.	4c	.	4e	.
.	.	.	.	1d	.	4f	.
.	.	.	.	.	.	4g	.
.	.	.	.	.	.	4a	.
.	.	.	.	.	.	4b	.
=10	=10	=10	=10	=10	=10	=10	=10
0r	.	1A	di-	2e	.	2cc	.
.	.	.	.	2.c	.	2a	-ti
.	.	1c	.	.	.	2g	sunt,
.	.	.	.	4B	.	.	.
.	.	.	.	4A	.	[2a	com-
.	.	.	.	4G	.	.	.
=11	=11	=11	=11	=11	=11	=11	=11
0r	.	1c	-es	1F	-ti	4a]	.
.	.	.	.	.	.	4g	.
.	.	.	.	.	.	4f	.
.	.	.	.	.	.	4e	.
.	.	1B	.	1G	sunt,	2.d	-ple-
.	.	.	.	.	.	4e	.
=12	=12	=12	=12	=12	=12	=12	=12
0r	.	2A	Ma-	2r	.	4f	.
.	.	.	.	.	.	4d	.
.	.	2G	.	2B	com-	1g	.
.	.	1A	-ri-	2.c	-ple-	.	.
.	.	.	.	.	.	2f#i	-ti
.	.	.	.	4d	-ti	.	.
=13	=13	=13	=13	=13	=13	=13	=13
1E	di-	0G	-ae,	1e	sunt	1g	sunt
1G	.	.	.	2r	.	2r	.
.	.	.	.	[2d	di-	[2g	di-
=14	=14	=14	=14	=14	=14	=14	=14
1G	-es	0r	.	2d]	.	2g]	.
.	.	.	.	2B	.	2e	.
1F	.	.	.	2c	.	2.f	.
.	.	.	.	2d	.	.	.
.	.	.	.	.	.	8eL	.
.	.	.	.	.	.	8dJ	.
=15	=15	=15	=15	=15	=15	=15	=15
2E	Ma-	0r	.	2e	.	2c	.
2D	.	.	.	2f	.	1d	.
1E	-ri-	.	.	4e	.	.	.
.	.	.	.	4d	.	.	.
.	.	.	.	[2g	.	2c#i	.
=16	=16	=16	=16	=16	=16	=16	=16
1D	-ae,	0r	.	2g]	.	1d	-es
.	.	.	.	2f	.	.	.
1G	ut	.	.	2g	-es	2r	.
.	.	.	.	2d	Ma-	[2dd	Ma-
=17	=17	=17	=17	=17	=17	=17	=17
1G	pa-	1r	.	2B	-ri-	2dd]	.
.	.	.	.	2G	-ae,	2b	.
1F	-re-	1c	ut	4A	.	2.cc	-ri-
.	.	.	.	4B	.	.	.
.	.	.	.	4c	.	.	.
.	.	.	.	4d	.	8bL	.
.	.	.	.	.	.	8aJ	.
=18	=18	=18	=18	=18	=18	=18	=18
0E	-ret	1c	pa-	1e	.	2g	.
.	.	.	.	.	.	1a	.
.	.	1B	-re-	2r	.	.	.
.	.	.	.	2e	ut	2g#i	.
=19	=19	=19	=19	=19	=19	=19	=19
1r	.	0A	-ret	2.f	pa-	0a	-ae,
.	.	.	.	4e	.	.	.
[1F	fi-	.	.	2c	.	.	.
.	.	.	.	2d	.	.	.
=20	=20	=20	=20	=20	=20	=20	=20
1F]	.	0r	.	2A	.	2r	.
.	.	.	.	2.c	.	2.a	ut
1E	-li-	.	.	.	.	.	.
.	.	.	.	4B	.	4g	.
.	.	.	.	2G	.	[2g	pa-
=21	=21	=21	=21	=21	=21	=21	=21
1D	-um	0r	.	2B	.	2g]	.
.	.	.	.	1A	.	4f	.
.	.	.	.	.	.	4e	.
1D	su-	.	.	.	.	1f	.
.	.	.	.	4G	-re-	.	.
.	.	.	.	4F	.	.	.
=22	=22	=22	=22	=22	=22	=22	=22
0C	-um	1r	.	2E	-ret,	1g	.
.	.	.	.	2.e	pa-	.	.
.	.	[1c	fi-	.	.	2a	.
.	.	.	.	4f	.	.	.
.	.	.	.	2g	.	[2g	.
=23	=23	=23	=23	=23	=23	=23	=23
0r	.	1c]	.	2e	.	2g]	.
.	.	.	.	1a	.	4f	.
.	.	.	.	.	.	4e	.
.	.	1B	-li-	.	.	1d	-re-
.	.	.	.	[2g	-re-	.	.
=24	=24	=24	=24	=24	=24	=24	=24
1C	pri-	1A	-um	2g]	.	1c	-ret
.	.	.	.	4f	.	.	.
.	.	.	.	4e	.	.	.
1D	-mo-	1A	su-	4f	.	1r	.
.	.	.	.	4e	.	.	.
.	.	.	.	4d	.	.	.
.	.	.	.	4c	.	.	.
=25	=25	=25	=25	=25	=25	=25	=25
0E	-ge-	1G	-um	1B	-ret	2r	.
.	.	.	.	.	.	2.g	fi-
.	.	1G	pri-	2r	.	.	.
.	.	.	.	.	.	4f	.
.	.	.	.	[2c	fi-	4e	.
.	.	.	.	.	.	4d	.
=26	=26	=26	=26	=26	=26	=26	=26
1F	.	1A	-mo-	4c]	.	1c	.
.	.	.	.	4B	.	.	.
.	.	.	.	4A	.	.	.
.	.	.	.	4G	.	.	.
1D	-ni-	1B	-ge-	1F	.	1d	-li-
=27	=27	=27	=27	=27	=27	=27	=27
0C	-tum,	1c	.	1G	-li-	1e	-um
.	.	1A	-ni-	2A	-um	1c	su-
.	.	.	.	[2c	su-	.	.
=28	=28	=28	=28	=28	=28	=28	=28
1r	.	0G	-tum,	2c]	.	2.d	.
.	.	.	.	4B	.	.	.
.	.	.	.	4A	.	4c	.
1GG	pri-	.	.	1B	-um,	2d	.
.	.	.	.	.	.	[2e	.
=29	=29	=29	=29	=29	=29	=29	=29
1AA	-mo-	1r	.	2r	.	2e]	.
.	.	.	.	2c	fi-	2f	.
1BB	-ge-	[1G	pri-	4B	.	1d	.
.	.	.	.	4A	.	.	.
.	.	.	.	4G	.	.	.
.	.	.	.	4F	.	.	.
=30	=30	=30	=30	=30	=30	=30	=30
1C	.	1G]	.	4E	.	1c	-um,
.	.	.	.	4D	.	.	.
.	.	.	.	1G	.	.	.
1AA	.	1A	-mo-	.	.	2r	.
.	.	.	.	2F#i	-li-	2cc	su-
=31	=31	=31	=31	=31	=31	=31	=31
1GG	-ni-	1B	-ge-	1G	-um	2b	.
.	.	.	.	.	.	1g	.
1C	.	1c	.	1E	su-	.	.
.	.	.	.	.	.	[2a	.
=32	=32	=32	=32	=32	=32	=32	=32
1C	-tum,	0A	-ni-	1C	-um	4a]	.
.	.	.	.	.	.	4g	.
.	.	.	.	.	.	1g	.
1r	.	.	.	1c	.	.	.
.	.	.	.	.	.	2f#i	.
=33	=33	=33	=33	=33	=33	=33	=33
2r	.	1G	-tum,	1d	.	2g	-um
2GG	pri-	.	.	.	.	2b	pri-
2AA	.	2r	.	2r	.	2cc	.
2BB	-mo-	[2G	pri-	2d	pri-	2dd	-mo-
=34	=34	=34	=34	=34	=34	=34	=34
2C	-ge-	2G]	.	2e	.	2g	-ge-
2AA	.	2A	-mo-	2c	-mo-	2cc	.
2GG	.	2B	-ge-	2d	-ge-	2b	.
2C	-ni-	2c	.	2e	-ni-	[2g	.
=35	=35	=35	=35	=35	=35	=35	=35
1D	-tum,	1A	-ni-	1d	-tum,	2g]	.
.	.	.	.	.	.	2f#i	-ni-
1r	.	2G	-tum,	2r	.	2g	-tum,
.	.	2G	pri-	2B	pri-	2e	pri-
=36	=36	=36	=36	=36	=36	=36	=36
2r	.	2A	.	2c	.	2f	.
2D	pri-	2B	-mo-	2d	-mo-	2d	-mo-
2E	.	2c	-ge-	2G	-ge-	2c	-ge-
2F	-mo-	2A	.	2A	.	2cc	-ni-
=37	=37	=37	=37	=37	=37	=37	=37
2G	-ge-	2G	.	2B	.	2b	-tum,
2E	.	2c	-ni-	2c	-ni-	2g	.
2D	.	2d	-tum,	2A	-tum,	2r	.
2G	-ni-	2B	pri-	2G	.	[2dd	pri-
=38	=38	=38	=38	=38	=38	=38	=38
2A	-tum,	1e	-mo-	2r	.	2dd]	.
2AA	pri-	.	.	2c	pri-	2cc	-mo-
2BB	.	2d	-ge-	2d	.	2b	-ge-
2C	-mo-	4c	.	2e	-mo-	2a	.
.	.	4B	.	.	.	.	.
=39	=39	=39	=39	=39	=39	=39	=39
2D	-ge-	2A	.	2f	-ge-	2d	.
2BB	.	2G	.	2d	.	1g	.
2AA	.	1A	-ni-	2c	.	.	.
2D	.	.	.	2d	.	2f#i	-ni-
=40	=40	=40	=40	=40	=40	=40	=40
2E	.	[0Gl	-tum.	1B	-ni-	[0gl	-tum.
2BB	.	.	.	.	.	.	.
1C	-ni-	.	.	1e	.	.	.
=41	=41	=41	=41	=41	=41	=41	=41
00GGl	-tum.	00G]	.	00dl	-tum.	00g]	.
==	==	==	==	==	==	==	==
*-	*-	*-	*-	*-	*-	*-	*-
!!!system-decoration: [*]
!!!RDF**kern: i = editorial accidental
!!!RDF**kern: l = terminal long
!!!PTL: <i> New Senfl Edition: Motets for Four Voices (A-I) </i>
!!!PPR: Hollitzer Verlag
!!!PC#: Denkmäler der Tonkunst in Österreich 163.1
!!!PDT: 2021
!!!PED: Scott Lee Edwards, Stefan Gasch, and Sonja Tröster
!!!YEC: Copyright 2021 Denkmäler der Tonkunst in Österreich
!!!YEM: CC-BY-NC 4.0 (https://creativecommons.org/licenses/by-nc/4.0/legalcode)
!!!EED: Benjamin Ory
!!!EEV: 2023/10/17
!!!verovio: header true
!!!header-left: @{PTL}\n@{PED}, eds.\n@{PC#} (@{PDT})&nbsp;\n
!!!header-right:
!!!header-center:
